X:281
T:Mr Heath's Dance.
C:John Malchair's Third Collection of Tunes
F:https://www.vwml.org/record/Malchair/3619/p28
F:www.vwml.org/topics/historic-dance-and-tune-books/Malchair
Z:Eric Conrad Jan 2020
N:NB1 No repeats in MS.  Assuming parts are repeated.
M:C|
L:1/8
K:D
P:A
|: A2 | F2D2 D2F2 | A4 B4 | A2F2 (GF)(ED) | (CD)(EF) E2AG |
F2D2 D2F2 | A4 B4 | A2F2 (GF)(ED) | D6 :|
P:B
|: ef | e2c2 c2d2 | e4 a2e2 | e2fe d2ed | c6 c2 |
d2c2 B2A2 | ^G2A2 B2(cd) | e2(fe) (dc)(BA) | A6 A2 |
F2D2 D2F2 | A4 B4 | A2F2 (GF)(ED) | (CD)(EF) E2AG |
F2D2 D2F2 | A4 B4 | A2F2 (GF)(ED) | D6 :|


